src/cmd/sc_insertrows.svg

<svg viewBox="0 0 16 16" xmlns="http://www.w3.org/2000/svg"><path d="m2 7v2 4 1h7v-1h-2v-3h2v-1h-2v-2h-1v2h-3v-2zm7 2h1v-2h-1zm4-2v2h1v-2zm-2 2v2h-2v1h2v2h1v-2h2v-1h-2v-2zm-8 1h3v3h-3z" fill="#232629"/><path d="m2 2v1.71875 2.28125 1h1 1 1.28125.71875 1 1 1.28125.71875 1 1 1 1v-1-2.28125-1.4375-.28125h-.28125-.71875-.71875-2.28125-.28125-1.4375-1.28125-1-.28125-1.4375-1.28125zm1 1h2.28125l.71875.71875 1 1 1 1 .28125.28125h-.28125-1-1-.28125l-1.71875-1.71875-1-1zm3.71875 0h.28125 2.28125l.71875.71875 1 1 1 1 .28125.28125h-.28125-1-1-.28125l-1.71875-1.71875-1-1zm4 0h2.28125v2.28125l-1-1-1-1zm-7.71875 1.71875 1 1 .28125.28125h-.28125-1z" fill="#762572"/></svg>

<?xml version="1.0" encoding="UTF-8" standalone="no"?>
<svg
   xmlns:dc="http://purl.org/dc/elements/1.1/"
   xmlns:cc="http://creativecommons.org/ns#"
   xmlns:rdf="http://www.w3.org/1999/02/22-rdf-syntax-ns#"
   xmlns:svg="http://www.w3.org/2000/svg"
   xmlns="http://www.w3.org/2000/svg"
   xmlns:sodipodi="http://sodipodi.sourceforge.net/DTD/sodipodi-0.dtd"
   xmlns:inkscape="http://www.inkscape.org/namespaces/inkscape"
   viewBox="0 0 16 16"
   version="1.1"
   id="svg6"
   sodipodi:docname="sc_insertrows.svg"
   inkscape:version="0.92.4 (5da689c313, 2019-01-14)">
  <metadata
     id="metadata12">
    <rdf:RDF>
      <cc:Work
         rdf:about="">
        <dc:format>image/svg+xml</dc:format>
        <dc:type
           rdf:resource="http://purl.org/dc/dcmitype/StillImage" />
      </cc:Work>
    </rdf:RDF>
  </metadata>
  <defs
     id="defs10" />
  <sodipodi:namedview
     pagecolor="#ffffff"
     bordercolor="#666666"
     borderopacity="1"
     objecttolerance="10"
     gridtolerance="10"
     guidetolerance="10"
     inkscape:pageopacity="0"
     inkscape:pageshadow="2"
     inkscape:window-width="1920"
     inkscape:window-height="1011"
     id="namedview8"
     showgrid="true"
     inkscape:zoom="45.254834"
     inkscape:cx="6.4059551"
     inkscape:cy="5.807587"
     inkscape:window-x="1920"
     inkscape:window-y="32"
     inkscape:window-maximized="1"
     inkscape:current-layer="svg6">
    <inkscape:grid
       type="xygrid"
       id="grid822" />
  </sodipodi:namedview>
  <path
     d="m 2,7 v 2 3 c 0,2 1,2 3,2 H 9 V 13 H 7 V 10 H 9 V 9 H 7 V 7 H 6 V 9 H 3 V 7 Z m 7,2 h 1 V 7 H 9 Z m 4,-2 v 2 h 1 V 7 Z m -2,2 v 2 H 9 v 1 h 2 v 2 h 1 v -2 h 2 V 11 H 12 V 9 Z m -8,1 h 3 v 3 H 5 C 4,13 3,13 3,12 Z"
     id="path2"
     inkscape:connector-curvature="0"
     style="fill:#232629"
     sodipodi:nodetypes="cccccccccccccccccccccccccccccccccccccccccccccc" />
  <path
     d="M 2,4 V 6 7 H 3 4 5.28125 6 7 8 9.28125 10 h 1 1 1 1 V 6 4 C 14,2 13,2 11,2 H 10 9.71875 8.28125 7 6 5.71875 5 C 3,2 2,2 2,4 Z M 5,3 H 5.28125 L 6,3.71875 l 1,1 1,1 L 8.28125,6 H 8 7 6 5.71875 L 4,4.28125 3.153,3.433 C 3.153,3 4,3 5,3 Z M 6.71875,3 H 7 9.28125 L 10,3.71875 l 1,1 1,1 L 12.28125,6 H 12 11 10 9.71875 L 8,4.28125 l -1,-1 z m 4,0 H 11 c 1,0 2,0 2,1 v 1.28125 l -1,-1 -1,-1 z M 3,4.71875 l 1,1 L 4.28125,6 H 4 3 Z"
     id="path4"
     inkscape:connector-curvature="0"
     style="fill:#762572"
     sodipodi:nodetypes="cccccccccccccccccccccccccccccccccccccccccccccccccccccccccccccccccc" />
</svg>
